src/shared/prerendered-app/Intro/imgs/info-content/secure.svg

<svg width="498" height="333" viewBox="0 0 498 333" fill="none" xmlns="http://www.w3.org/2000/svg">
<path d="M401.17 125.52C387.072 53.9228 324.253 0.17334 248.787 0.17334C188.871 0.17334 136.833 34.2077 110.918 84.0142C48.5135 90.655 0 143.574 0 207.7C0 276.392 55.7698 332.216 124.394 332.216H393.913C451.134 332.216 497.575 285.73 497.575 228.453C497.575 173.666 455.073 129.255 401.17 125.52Z" fill="#91D3FF" fill-opacity="0.3"/>
<path d="M187.247 121.321L183.26 117.334L179.779 121.768C168.26 136.438 161.413 154.918 161.413 175.01C161.413 223.013 200.295 261.895 248.298 261.895C268.389 261.895 286.87 255.047 301.54 243.529L305.974 240.047L301.987 236.061L187.247 121.321ZM309.348 228.7L313.335 232.686L316.816 228.252C328.335 213.583 335.182 195.102 335.182 175.01C335.182 127.008 296.3 88.1259 248.298 88.1259C228.206 88.1259 209.725 94.973 195.056 106.491L190.621 109.973L194.608 113.959L309.348 228.7ZM150.942 175.01C150.942 121.271 194.559 77.6548 248.298 77.6548C302.036 77.6548 345.653 121.271 345.653 175.01C345.653 228.749 302.036 272.366 248.298 272.366C194.559 272.366 150.942 228.749 150.942 175.01Z" fill="#FF3385" stroke="#FF3385" stroke-width="10"/>
</svg>

<svg width="498" height="333" fill="none" xmlns="http://www.w3.org/2000/svg"><path d="M401.17 125.52C387.072 53.923 324.253.173 248.787.173c-59.916 0-111.954 34.035-137.869 83.841C48.513 90.655 0 143.574 0 207.7c0 68.692 55.77 124.516 124.394 124.516h269.519c57.221 0 103.662-46.486 103.662-103.763 0-54.787-42.502-99.198-96.405-102.933z" fill="#91D3FF" fill-opacity=".3"/><path d="M187.247 121.321l-3.987-3.987-3.481 4.434c-11.519 14.67-18.366 33.15-18.366 53.242 0 48.003 38.882 86.885 86.885 86.885 20.091 0 38.572-6.848 53.242-18.366l4.434-3.482-3.987-3.986-114.74-114.74zM309.348 228.7l3.987 3.986 3.481-4.434c11.519-14.669 18.366-33.15 18.366-53.242 0-48.002-38.882-86.884-86.884-86.884-20.092 0-38.573 6.847-53.242 18.365l-4.435 3.482 3.987 3.986L309.348 228.7zm-158.406-53.69c0-53.739 43.617-97.355 97.356-97.355 53.738 0 97.355 43.616 97.355 97.355 0 53.739-43.617 97.356-97.355 97.356-53.739 0-97.356-43.617-97.356-97.356z" fill="#FF3385" stroke="#FF3385" stroke-width="10"/></svg>
